icon-themes/breeze_svg/cmd/sc_calloutshapes.line-callout-1.svg

<svg viewBox="0 0 16 16" xmlns="http://www.w3.org/2000/svg">/&gt;<path d="m5 2v9h9v-9zm-2 4-1 7.9375v.0625h1l1-7.9375v-.0625z" fill="#4d4d4d"/></svg>

<svg xmlns="http://www.w3.org/2000/svg" viewBox="0 0 16 16">
     />
 <path 
     style="fill:#4d4d4d" 
     d="M 5 2 L 5 11 L 14 11 L 14 2 L 5 2 z M 3 6 L 2 13.9375 L 2 14 L 3 14 L 4 6.0625 L 4 6 L 3 6 z "
     />
 </svg>
